NotoEmoji/emoji_u1f502.svg

<svg enable-background="new 0 0 128 128" viewBox="0 0 128 128" xmlns="http://www.w3.org/2000/svg"><path d="m116 4h-104c-4.42 0-8 3.58-8 8v104c0 4.42 3.58 8 8 8h104c4.42 0 8-3.58 8-8v-104c0-4.42-3.58-8-8-8z" fill="#f77e00"/><path d="m109.7 4h-98.2c-4.13.03-7.47 3.37-7.5 7.5v97.9c-.01 4.14 3.34 7.49 7.48 7.5h.02 98.1c4.14.01 7.49-3.34 7.5-7.48 0-.01 0-.01 0-.02v-97.9c.09-4.05-3.13-7.41-7.18-7.5-.07 0-.15 0-.22 0z" fill="#ff9800"/><path d="m39.7 12.9c0-2.3-1.6-3-10.8-2.7-7.7.3-11.5 1.2-13.8 4s-2.9 8.5-3 15.3c0 4.8 0 9.3 2.5 9.3 3.4 0 3.4-7.9 6.2-12.3 5.4-8.7 18.9-10.6 18.9-13.6z" fill="#ffbd52" opacity=".75"/><g fill="#fafafa"><path d="m108.8 54.7-14.8 13.3c-.4 10.5-7.2 12-12 12h-13.2c1.6 5.21 1.6 10.79 0 16h13.2c15.5 0 28-14.3 28-32 .01-3.14-.4-6.27-1.2-9.3z"/><path d="m108.6 37-24-24c-1.68-1.44-4.2-1.24-5.64.44-.61.71-.95 1.62-.96 2.56v14c0 1.1-.9 2-2 2h-34c-15.5 0-28 14.3-28 32-.01 3.14.4 6.27 1.2 9.3l.1-.1c3.03-6.02 8.2-10.7 14.5-13.1l.2-.1c.5-10.5 7.2-12 12-12h34c1.1 0 2 .9 2 2v14c.02 2.21 1.83 3.98 4.04 3.96.94-.01 1.85-.35 2.56-.96l24-24c1.66-1.35 1.91-3.79.56-5.44-.17-.21-.36-.39-.56-.56z"/><path d="m40.7 63.4c-13.03 0-23.6 10.57-23.6 23.6s10.57 23.6 23.6 23.6 23.6-10.57 23.6-23.6c-.02-13.02-10.58-23.58-23.6-23.6zm5.3 42.2c0 .55-.45 1-1 1h-6.7c-.55 0-1-.45-1-1v-25.1c-.03-.55-.5-.97-1.05-.95-.08 0-.17.02-.25.05l-5.9 1.7c-.53.17-1.09-.13-1.25-.65-.03-.08-.04-.16-.05-.25v-4.5c.02-.42.3-.78.7-.9l15.1-5c.53-.17 1.09.13 1.25.65.03.08.04.16.05.25z"/></g></svg>

<?xml version="1.0" encoding="utf-8"?>
<!-- Generator: Adobe Illustrator 25.2.3, SVG Export Plug-In . SVG Version: 6.00 Build 0)  -->
<svg version="1.1" id="Layer_2" xmlns="http://www.w3.org/2000/svg" xmlns:xlink="http://www.w3.org/1999/xlink" x="0px" y="0px"
	 viewBox="0 0 128 128" style="enable-background:new 0 0 128 128;" xml:space="preserve">
<g>
	<path style="fill:#F77E00;" d="M116,4H12c-4.42,0-8,3.58-8,8v104c0,4.42,3.58,8,8,8h104c4.42,0,8-3.58,8-8V12
		C124,7.58,120.42,4,116,4z"/>
	<path style="fill:#FF9800;" d="M109.7,4H11.5C7.37,4.03,4.03,7.37,4,11.5v97.9c-0.01,4.14,3.34,7.49,7.48,7.5c0.01,0,0.01,0,0.02,0
		h98.1c4.14,0.01,7.49-3.34,7.5-7.48c0-0.01,0-0.01,0-0.02V11.5c0.09-4.05-3.13-7.41-7.18-7.5C109.85,4,109.77,4,109.7,4z"/>
	<path style="opacity:0.75;fill:#FFBD52;enable-background:new    ;" d="M39.7,12.9c0-2.3-1.6-3-10.8-2.7c-7.7,0.3-11.5,1.2-13.8,4
		s-2.9,8.5-3,15.3c0,4.8,0,9.3,2.5,9.3c3.4,0,3.4-7.9,6.2-12.3C26.2,17.8,39.7,15.9,39.7,12.9z"/>
	<path style="fill:#FAFAFA;" d="M108.8,54.7L108.8,54.7L94,68c-0.4,10.5-7.2,12-12,12H68.8c1.6,5.21,1.6,10.79,0,16H82
		c15.5,0,28-14.3,28-32C110.01,60.86,109.6,57.73,108.8,54.7z"/>
	<path style="fill:#FAFAFA;" d="M108.6,37l-24-24c-1.68-1.44-4.2-1.24-5.64,0.44C78.35,14.15,78.01,15.06,78,16v14c0,1.1-0.9,2-2,2
		H42c-15.5,0-28,14.3-28,32c-0.01,3.14,0.4,6.27,1.2,9.3l0,0l0.1-0.1c3.03-6.02,8.2-10.7,14.5-13.1L30,60c0.5-10.5,7.2-12,12-12h34
		c1.1,0,2,0.9,2,2v14c0.02,2.21,1.83,3.98,4.04,3.96c0.94-0.01,1.85-0.35,2.56-0.96l24-24c1.66-1.35,1.91-3.79,0.56-5.44
		C108.99,37.35,108.8,37.17,108.6,37z"/>
	<path style="fill:#FAFAFA;" d="M40.7,63.4c-13.03,0-23.6,10.57-23.6,23.6s10.57,23.6,23.6,23.6S64.3,100.03,64.3,87l0,0
		C64.28,73.98,53.72,63.42,40.7,63.4z M46,105.6c0,0.55-0.45,1-1,1h-6.7c-0.55,0-1-0.45-1-1V80.5c-0.03-0.55-0.5-0.97-1.05-0.95
		c-0.08,0-0.17,0.02-0.25,0.05l-5.9,1.7c-0.53,0.17-1.09-0.13-1.25-0.65c-0.03-0.08-0.04-0.16-0.05-0.25v-4.5
		c0.02-0.42,0.3-0.78,0.7-0.9l15.1-5c0.53-0.17,1.09,0.13,1.25,0.65c0.03,0.08,0.04,0.16,0.05,0.25L46,105.6z"/>
</g>
</svg>
